assets/svg/relocation.svg

<?xml version="1.0" encoding="UTF-8" standalone="no"?>
<svg
        xmlns:dc="http://purl.org/dc/elements/1.1/"
        xmlns:cc="http://creativecommons.org/ns#"
        xmlns:rdf="http://www.w3.org/1999/02/22-rdf-syntax-ns#"
        xmlns:sodipodi="http://sodipodi.sourceforge.net/DTD/sodipodi-0.dtd"
        xmlns:inkscape="http://www.inkscape.org/namespaces/inkscape"
        xmlns="http://www.w3.org/2000/svg"
        height="16px"
        id="Layer_1"
        style="enable-background:new 0 0 16 16;fill: #000000;"
        version="1.1"
        viewBox="0 0 16 16"
        width="16px"
        xml:space="preserve"
        sodipodi:docname="relocation.svg"
        inkscape:version="0.92.5 (2060ec1f9f, 2020-04-08)"><metadata
   id="metadata9"><rdf:RDF><cc:Work
       rdf:about=""><dc:format>image/svg+xml</dc:format><dc:type
        rdf:resource="http://purl.org/dc/dcmitype/StillImage"/></cc:Work></rdf:RDF></metadata>
    <defs
            id="defs7"/>
    <sodipodi:namedview
            pagecolor="#ffffff"
            bordercolor="#666666"
            borderopacity="1"
            objecttolerance="10"
            gridtolerance="10"
            guidetolerance="10"
            inkscape:pageopacity="0"
            inkscape:pageshadow="2"
            inkscape:window-width="1920"
            inkscape:window-height="1003"
            id="namedview5"
            showgrid="false"
            inkscape:zoom="20.85965"
            inkscape:cx="10.143178"
            inkscape:cy="10.590388"
            inkscape:window-x="0"
            inkscape:window-y="0"
            inkscape:window-maximized="1"
            inkscape:current-layer="Layer_1"/>
    <path
            d="M 15.968433,9.4957631 14.991526,8.5195302 V 6.1271188 c 0,-0.3705509 -0.303177,-0.6737288 -0.673729,-0.6737288 h -0.673728 c -0.370553,0 -0.67373,0.3031779 -0.67373,0.6737288 v 0.372572 L 11.622881,5.1535806 C 11.438954,4.9797587 11.270522,4.7796611 10.949152,4.7796611 c -0.321369,0 -0.489801,0.2000976 -0.67373,0.3739195 L 5.9298726,9.4957631 c -0.2102033,0.21896 -0.3705508,0.378636 -0.3705508,0.6737279 0,0.379309 0.2910508,0.673729 0.6737289,0.673729 h 0.6737287 v 4.042372 c 0,0.370553 0.303178,0.67373 0.6737289,0.67373 h 2.0211871 v -3.368645 c 0,-0.37055 0.303178,-0.673727 0.6737266,-0.673727 h 1.347459 c 0.37055,0 0.673728,0.303177 0.673728,0.673727 v 3.368645 h 2.021188 c 0.370552,0 0.673729,-0.303177 0.673729,-0.67373 V 10.84322 h 0.673729 c 0.382678,0 0.673729,-0.29442 0.673729,-0.673729 0,-0.2950919 -0.160347,-0.4547679 -0.370551,-0.6737279 z"
            id="path2"
            inkscape:connector-curvature="0"
            style="stroke-width:0.67372882"/>
    <path
            d="M 7.5468103,3.8654038 6.9092727,3.2283064 V 1.6669989 c 0,-0.2418245 -0.197856,-0.4396809 -0.4396814,-0.4396809 H 6.0299107 c -0.2418254,0 -0.4396815,0.1978564 -0.4396815,0.4396809 V 1.9101425 L 4.7108672,1.0316599 C 4.5908347,0.91822221 4.4809147,0.78763691 4.2711857,0.78763691 c -0.2097281,0 -0.319648,0.1305853 -0.4396814,0.24402299 L 0.99556255,3.8654038 c -0.1371804,0.1428956 -0.2418245,0.2471013 -0.2418245,0.4396805 0,0.2475406 0.1899421,0.4396815 0.43968095,0.4396815 H 1.6331 v 2.6380853 c 0,0.2418254 0.1978565,0.4396815 0.439681,0.4396815 H 3.3918246 V 5.624127 c 0,-0.2418237 0.1978561,-0.4396797 0.4396797,-0.4396797 h 0.8793629 c 0.2418236,0 0.4396805,0.197856 0.4396805,0.4396797 v 2.1984056 h 1.3190436 c 0.2418254,0 0.4396814,-0.1978561 0.4396814,-0.4396815 V 4.7447658 h 0.4396806 c 0.2497393,0 0.4396815,-0.1921409 0.4396815,-0.4396815 0,-0.1925792 -0.104644,-0.2967849 -0.2418245,-0.4396805 z"
            id="path2-3"
            inkscape:connector-curvature="0"
            style="fill:none;stroke:#808080;stroke-width:0.43968096;stroke-opacity:1"/>
    <path
            style="fill:none;stroke:#000000;stroke-width:0.86116266;stroke-linecap:round;stroke-linejoin:round;stroke-miterlimit:4;stroke-dasharray:none;stroke-opacity:1"
            d="m 4.2635907,11.093613 1.7780944,1.509272 -1.7780944,1.504628"
            id="path821"
            inkscape:connector-curvature="0"
            sodipodi:nodetypes="ccc"/>
    <path
            style="fill:none;stroke:#000000;stroke-width:0.79756224;stroke-linecap:round;stroke-linejoin:miter;stroke-miterlimit:4;stroke-dasharray:none;stroke-opacity:1"
            d="M 5.5446079,12.650872 C 4.7207387,12.633302 2.1674541,13.155351 2.3608287,10.176205"
            id="path815"
            inkscape:connector-curvature="0"
            sodipodi:nodetypes="cc"/></svg>

<?xml version="1.0" encoding="UTF-8" standalone="yes"?>
<svg xmlns="http://www.w3.org/2000/svg" xmlns:xlink="http://www.w3.org/1999/xlink" width="375px" height="375px" viewBox="0 0 375 375" version="1.1">
  <g id="surface1">
    <path style=" stroke:none;fill-rule:nonzero;fill:rgb(0%,0%,0%);fill-opacity:1;" d="M 374.261719 222.558594 L 351.363281 199.675781 L 351.363281 143.605469 C 351.363281 134.917969 344.257812 127.8125 335.574219 127.8125 L 319.78125 127.8125 C 311.097656 127.8125 303.992188 134.917969 303.992188 143.605469 L 303.992188 152.335938 L 272.410156 120.785156 C 268.101562 116.714844 264.152344 112.023438 256.621094 112.023438 C 249.089844 112.023438 245.140625 116.714844 240.832031 120.785156 L 138.980469 222.558594 C 134.054688 227.6875 130.296875 231.429688 130.296875 238.347656 C 130.296875 247.238281 137.117188 254.136719 146.085938 254.136719 L 161.878906 254.136719 L 161.878906 348.882812 C 161.878906 357.566406 168.984375 364.671875 177.667969 364.671875 L 225.039062 364.671875 L 225.039062 285.71875 C 225.039062 277.035156 232.144531 269.929688 240.832031 269.929688 L 272.410156 269.929688 C 281.097656 269.929688 288.203125 277.035156 288.203125 285.71875 L 288.203125 364.671875 L 335.574219 364.671875 C 344.257812 364.671875 351.363281 357.566406 351.363281 348.882812 L 351.363281 254.136719 L 367.15625 254.136719 C 376.125 254.136719 382.945312 247.238281 382.945312 238.347656 C 382.945312 231.429688 379.1875 227.6875 374.261719 222.558594 Z M 374.261719 222.558594 "/>
    <path style="fill:none;stroke-width:0.439681;stroke-linecap:butt;stroke-linejoin:miter;stroke:rgb(50.196081%,50.196081%,50.196081%);stroke-opacity:1;stroke-miterlimit:4;" d="M 7.546833 3.865333 L 6.909333 3.228333 L 6.909333 1.667 C 6.909333 1.425167 6.7115 1.227333 6.469667 1.227333 L 6.029833 1.227333 C 5.788167 1.227333 5.590167 1.425167 5.590167 1.667 L 5.590167 1.910167 L 4.710833 1.031667 C 4.590833 0.918167 4.480833 0.787667 4.271167 0.787667 C 4.0615 0.787667 3.9515 0.918167 3.8315 1.031667 L 0.9955 3.865333 C 0.858333 4.008333 0.753667 4.1125 0.753667 4.305167 C 0.753667 4.552667 0.943667 4.744833 1.1935 4.744833 L 1.633167 4.744833 L 1.633167 7.382833 C 1.633167 7.624667 1.831 7.8225 2.072833 7.8225 L 3.391833 7.8225 L 3.391833 5.624167 C 3.391833 5.382333 3.589667 5.1845 3.8315 5.1845 L 4.710833 5.1845 C 4.952667 5.1845 5.1505 5.382333 5.1505 5.624167 L 5.1505 7.8225 L 6.469667 7.8225 C 6.7115 7.8225 6.909333 7.624667 6.909333 7.382833 L 6.909333 4.744833 L 7.349 4.744833 C 7.598667 4.744833 7.788667 4.552667 7.788667 4.305167 C 7.788667 4.1125 7.684 4.008333 7.546833 3.865333 Z M 7.546833 3.865333 " transform="matrix(23.4375,0,0,23.4375,0,0)"/>
    <path style="fill:none;stroke-width:0.861163;stroke-linecap:round;stroke-linejoin:round;stroke:rgb(0%,0%,0%);stroke-opacity:1;stroke-miterlimit:4;" d="M 4.263667 11.093667 L 6.041667 12.602833 L 4.263667 14.1075 " transform="matrix(23.4375,0,0,23.4375,0,0)"/>
    <path style="fill:none;stroke-width:0.797562;stroke-linecap:round;stroke-linejoin:miter;stroke:rgb(0%,0%,0%);stroke-opacity:1;stroke-miterlimit:4;" d="M 5.544667 12.650833 C 4.720667 12.633333 2.1675 13.155333 2.360833 10.176167 " transform="matrix(23.4375,0,0,23.4375,0,0)"/>
  </g>
</svg>
